X: 20
T:Butterfly
M:2/4s
L:1/8
K:A
c2 d d |e c A2 |a2 g f| f e e2| c2 d d | e2 (3fga| c2 d B| A2 A2:|
|: B>B B B|c B B2|B>B B B|c B B2|B>B B B|c>c c c|d>d d d| A4:|

